!!!OTL: SCHWAEFELHOLZE
!!!ARE: Europa, Mitteleuropa, Deutschland; France, Elsass
!!!SCT: E1791
!!!YEM: Copyright 1995, estate of Helmut Schaffrath.
**kern
*ICvox
*Ivox
*M2/4
*k[b-]
*F:
=1
{8a
8cc
8cc
8a
=2
8g
8b-
8b-
8g}
=3
{8f
8a
8a
8f
=4
8g
8e
4c}
=5
{8a
8cc
8cc
8a
=6
8g
8b-
8b-}
{8g
=7
8a
8f
8g
8e
=8
4f
4r}
=9
{8dd
8dd
8dd
8ff
=10
8cc
8cc
4cc}
=11
{8b-
8b-
8b-
16cc
16b-
=12
8a
8a
4a}
=13
{8a
8f
8b-
8g
=14
8cc
8a
8b-
8g}
=15
{8a
8f
8b-
8g
=16
8cc
8a
8b-
8g}
=17
{8a
8f
8g
8e
=18
4f
4r}
=19
{8dd
8dd
8dd
16ee
16dd
=20
8cc
8cc
8cc
16dd
16cc}
=21
{8b-
8b-
8b-
16cc
16b-
=22
8a
8a
8a
16b-
16a}
=23
{8g
8g
8g
16a
16g
=24
4f
4r}
==
!!!AGN: Scherz - Lied
!!!ONB: ESAC (Essen Associative Code) Database: ERK3
!!!AMT: simple duple
!!!AIN: vox
!!!EED: Helmut Schaffrath
!!!EEV: 1.0
*-
